X:1
T: Miss MacMurdo's Favourite
C:
R:Strathspey
Q: 128
K:Em
M:4/4
L:1/16
|:B2|e3f e2^d2 e4 B2e2|d3e f2g2 fa3 g2f2|e3f e2^d2 e4 B3A|G3A B2B,2 E6 B2|
e3f e2^d2 e4 B2e2|d3e f2g2 fa3 g2f2|e3f e2^d2 e4 B3A|G3A B2B,2 E6 d2|
B3c d2B2 c3B A2g2|f2g2 e2f2 B2b2 g2f2|e3f e2^d2 e4 B3A|G3A B2B,2 E6 d2|
B3c d2B2 c3B A2g2|f2g2 e2f2 ^d2b2 g2f2|e2g2 f2a2 g2b2 e2g2|G2B2 B,2^D2 E6:|
